pool.svg

<svg fill="currentColor" viewBox="0 0 24 24"><path d="M2 15c1.67-.75 3.33-1.5 5-1.83V5a3 3 0 0 1 3-3c1.31 0 2.42.83 2.83 2H10a1 1 0 0 0-1 1v1h5V5a3 3 0 0 1 3-3c1.31 0 2.42.83 2.83 2H17a1 1 0 0 0-1 1v9.94c2-.32 4-1.94 6-1.94v2c-2.22 0-4.44 2-6.67 2-2.22 0-4.44-2-6.66-2-2.23 0-4.45 1-6.67 2zm12-7H9v2h5zm0 4H9v1c1.67.16 3.33 1.31 5 1.79zM2 19c2.22-1 4.44-2 6.67-2 2.22 0 4.44 2 6.66 2 2.23 0 4.45-2 6.67-2v2c-2.22 0-4.44 2-6.67 2-2.22 0-4.44-2-6.66-2-2.23 0-4.45 1-6.67 2z"/></svg>

<svg  viewBox="0 0 24 24" fill="currentColor"><path  d="M2,15C3.67,14.25 5.33,13.5 7,13.17V5A3,3 0 0,1 10,2C11.31,2 12.42,2.83 12.83,4H10A1,1 0 0,0 9,5V6H14V5A3,3 0 0,1 17,2C18.31,2 19.42,2.83 19.83,4H17A1,1 0 0,0 16,5V14.94C18,14.62 20,13 22,13V15C19.78,15 17.56,17 15.33,17C13.11,17 10.89,15 8.67,15C6.44,15 4.22,16 2,17V15M14,8H9V10H14V8M14,12H9V13C10.67,13.16 12.33,14.31 14,14.79V12M2,19C4.22,18 6.44,17 8.67,17C10.89,17 13.11,19 15.33,19C17.56,19 19.78,17 22,17V19C19.78,19 17.56,21 15.33,21C13.11,21 10.89,19 8.67,19C6.44,19 4.22,20 2,21V19Z"/></svg>
